icons/outline/server-cog.svg

<!--
category: Devices
tags: [settings, storage, data, database]
version: "1.85"
unicode: "f321"
-->
<svg
  xmlns="http://www.w3.org/2000/svg"
  width="24"
  height="24"
  viewBox="0 0 24 24"
  fill="none"
  stroke="currentColor"
  stroke-width="2"
  stroke-linecap="round"
  stroke-linejoin="round"
>
  <path d="M3 4m0 3a3 3 0 0 1 3 -3h12a3 3 0 0 1 3 3v2a3 3 0 0 1 -3 3h-12a3 3 0 0 1 -3 -3zm9 13h-6a3 3 0 0 1 -3 -3v-2a3 3 0 0 1 3 -3h10.5m1.5 6m-2 0a2 2 0 1 0 4 0a2 2 0 1 0 -4 0m2 -3.5v1.5m0 4v1.5m3.032 -5.25l-1.299 .75m-3.463 2l-1.3 .75m0 -3.5l1.3 .75m3.463 2l1.3 .75m-14.033 -11.75v.01m0 7.99v.01" />
</svg>

<!--
category: Devices
tags: [settings, storage, data, database]
version: "1.85"
unicode: "f321"
-->
<svg
  xmlns="http://www.w3.org/2000/svg"
  width="24"
  height="24"
  viewBox="0 0 24 24"
  fill="none"
  stroke="currentColor"
  stroke-width="2"
  stroke-linecap="round"
  stroke-linejoin="round"
>
    <path d="M3 4m0 3a3 3 0 0 1 3 -3h12a3 3 0 0 1 3 3v2a3 3 0 0 1 -3 3h-12a3 3 0 0 1 -3 -3zM12 20h-6a3 3 0 0 1 -3 -3v-2a3 3 0 0 1 3 -3h10.5M18 18m-2 0a2 2 0 1 0 4 0a2 2 0 1 0 -4 0M18 14.5v1.5M18 20v1.5M21.032 16.25l-1.299 .75M16.27 19l-1.3 .75M14.97 16.25l1.3 .75M19.733 19l1.3 .75M7 8v.01M7 16v.01" />
</svg>
